X: 25162
T: Major Campbell Graham, MBE
R: reel
M: 4/4
K: Dmajor
fe|d2 Bd dBBA|Bdde f4|f2 ed faaf|eddf e2 fe|
d2 Bd dBBA|Bdde f4|f2 ed faaf|edfe d2||
fg|a2fa fedB|ABde f4|f2 a2 fede|fA ~A2 e2 de|
faAa fedB|ABde f4|f2 ed faaf|edfe d4||
BfBf fedB|Adda f4|f2 a2 fede|fA ~A2 e4|
BfBf fedB|Adda f4|f2 ed faaf|edfe d2 fg||
affa f2 ed|a2 a2 f2 ed|a2 Aa fede|fA ~A2 e2 de|
faAa fedB|ABde f4|f2 ed faaf|edfe d2||

